X: 1
T: Faeries Delight
M: 9/8
L: 1/8
S: http://www.faeriemagazine.com/forum/topic.aspTOPIC_ID=382008-3-20
K: D mixolydian
|:A2G Add Add|ABA AFA fAg|A2G Add ded|cAG AAG FDD:|
| a2f add add | a2f add baf | a2f add add | cAG A2G FED|
| a2f add add | a2f add baf | a3 bag a2g | fed cAG FED ||
